assets/companies/light/github.svg

<svg width="20" height="20" viewBox="0 0 20 20" fill="none" xmlns="http://www.w3.org/2000/svg">
<g opacity="0.5" clip-path="url(#clip0_3447_3642)">
<path fill-rule="evenodd" clip-rule="evenodd" d="M9.99939 0.416748C7.62541 0.41798 5.32927 1.2588 3.52156 2.78885C1.71384 4.3189 0.512419 6.43842 0.13212 8.76841C-0.248179 11.0984 0.217438 13.4869 1.44572 15.5069C2.67401 17.5269 4.58487 19.0466 6.83661 19.7942C7.33338 19.8864 7.5205 19.5785 7.5205 19.3167C7.5205 19.055 7.51056 18.2959 7.50725 17.4661C4.72533 18.0671 4.13749 16.2922 4.13749 16.2922C3.68377 15.1396 3.02803 14.8367 3.02803 14.8367C2.12059 14.2209 3.09593 14.2324 3.09593 14.2324C4.10106 14.3032 4.6293 15.2582 4.6293 15.2582C5.52017 16.7779 6.96908 16.3383 7.53871 16.0814C7.62813 15.4376 7.88811 14.9997 8.17458 14.751C5.95236 14.5008 3.61753 13.6479 3.61753 9.83793C3.60376 8.84984 3.97252 7.89429 4.64751 7.16898C4.54484 6.91872 4.20206 5.90778 4.7452 4.53461C4.7452 4.53461 5.58475 4.26788 7.49566 5.55378C9.13472 5.1081 10.8641 5.1081 12.5031 5.55378C14.4124 4.26788 15.2502 4.53461 15.2502 4.53461C15.795 5.90448 15.4523 6.91542 15.3496 7.16898C16.0267 7.89441 16.3963 8.85162 16.3812 9.84123C16.3812 13.6594 14.0414 14.5008 11.8159 14.7461C12.1736 15.0556 12.4932 15.6599 12.4932 16.5885C12.4932 17.9189 12.4816 18.9891 12.4816 19.3167C12.4816 19.5818 12.6621 19.8914 13.1688 19.7942C15.4208 19.0465 17.3318 17.5265 18.5601 15.5062C19.7884 13.4859 20.2537 11.097 19.873 8.76679C19.4923 6.43658 18.2903 4.31704 16.4819 2.78725C14.6736 1.25746 12.377 0.417199 10.0027 0.416748H9.99939Z" fill="#86848D"/>
<path d="M3.78632 14.6935C3.76479 14.7429 3.68531 14.7577 3.62073 14.7232C3.55615 14.6886 3.50813 14.6244 3.53131 14.5733C3.5545 14.5223 3.63232 14.5091 3.6969 14.5437C3.76148 14.5783 3.81116 14.6441 3.78632 14.6935Z" fill="#86848D"/>
<path d="M4.19237 15.1428C4.15807 15.16 4.11884 15.1648 4.08138 15.1563C4.04393 15.1479 4.01058 15.1268 3.98703 15.0967C3.92245 15.0275 3.9092 14.932 3.95888 14.8892C4.00855 14.8464 4.09798 14.8662 4.16256 14.9353C4.22714 15.0045 4.24204 15.1 4.19237 15.1428Z" fill="#86848D"/>
<path d="M4.58771 15.7143C4.52644 15.7571 4.42211 15.7143 4.36415 15.6287C4.34813 15.6133 4.33538 15.5949 4.32668 15.5746C4.31797 15.5542 4.31348 15.5323 4.31348 15.5102C4.31348 15.488 4.31797 15.4661 4.32668 15.4457C4.33538 15.4254 4.34813 15.407 4.36415 15.3916C4.42542 15.3504 4.52975 15.3916 4.58771 15.4756C4.64566 15.5595 4.64732 15.6715 4.58771 15.7143Z" fill="#86848D"/>
<path d="M5.12168 16.2674C5.06704 16.3283 4.95609 16.3118 4.86502 16.2295C4.77394 16.1472 4.75241 16.0352 4.80706 15.9759C4.8617 15.9167 4.97265 15.9331 5.06703 16.0138C5.16142 16.0945 5.17964 16.2081 5.12168 16.2674Z" fill="#86848D"/>
<path d="M5.87149 16.5901C5.84665 16.6675 5.73404 16.702 5.62144 16.6691C5.50884 16.6362 5.43433 16.544 5.45585 16.4649C5.47738 16.3859 5.59164 16.3497 5.7059 16.3859C5.82015 16.4221 5.89301 16.5094 5.87149 16.5901Z" fill="#86848D"/>
<path d="M6.69059 16.6459C6.69059 16.7266 6.59787 16.7957 6.47864 16.7974C6.35942 16.799 6.26172 16.7332 6.26172 16.6525C6.26172 16.5718 6.35444 16.5027 6.47367 16.501C6.5929 16.4994 6.69059 16.5636 6.69059 16.6459Z" fill="#86848D"/>
<path d="M7.45166 16.5194C7.46656 16.6001 7.38377 16.6841 7.26454 16.7038C7.14532 16.7236 7.041 16.6758 7.02609 16.5968C7.01119 16.5178 7.0973 16.4322 7.21321 16.4108C7.32912 16.3894 7.43676 16.4387 7.45166 16.5194Z" fill="#86848D"/>
</g>
<defs>
<clipPath id="clip0_3447_3642">
<rect width="20" height="20" fill="white"/>
</clipPath>
</defs>
</svg>

<svg xmlns="http://www.w3.org/2000/svg" width="20" height="20" fill="none" viewBox="0 0 20 20"><g fill="#86848D" clip-path="url(#a)" opacity=".5"><path fill-rule="evenodd" d="M10 .417c-2.375.001-4.67.842-6.478 2.372a9.93 9.93 0 0 0-3.39 5.98 9.9 9.9 0 0 0 1.314 6.738 10 10 0 0 0 5.39 4.287c.497.092.684-.216.684-.477 0-.262-.01-1.021-.013-1.85-2.782.6-3.37-1.175-3.37-1.175-.453-1.152-1.109-1.455-1.109-1.455-.907-.616.068-.605.068-.605 1.005.071 1.533 1.026 1.533 1.026.891 1.52 2.34 1.08 2.91.823.09-.643.35-1.081.636-1.33-2.223-.25-4.557-1.103-4.557-4.913a3.84 3.84 0 0 1 1.03-2.669c-.103-.25-.446-1.261.097-2.634 0 0 .84-.267 2.75 1.019a9.54 9.54 0 0 1 5.008 0c1.91-1.286 2.747-1.02 2.747-1.02.545 1.37.202 2.381.1 2.635a3.83 3.83 0 0 1 1.031 2.672c0 3.818-2.34 4.66-4.565 4.905.358.31.677.914.677 1.842 0 1.33-.011 2.401-.011 2.729 0 .265.18.574.687.477a10 10 0 0 0 5.391-4.288 9.9 9.9 0 0 0 1.313-6.74 9.93 9.93 0 0 0-3.391-5.979 10.04 10.04 0 0 0-6.48-2.37z" clip-rule="evenodd"/><path d="M3.786 14.694c-.021.049-.1.064-.165.03-.065-.035-.113-.1-.09-.15.023-.052.101-.065.166-.03.064.034.114.1.09.15m.405.449a.166.166 0 0 1-.205-.046c-.065-.07-.078-.165-.028-.208s.139-.023.204.046c.064.07.079.165.03.208m.395.571c-.062.043-.166 0-.224-.085a.17.17 0 0 1-.037-.183.2.2 0 0 1 .037-.054c.061-.042.166 0 .224.084.058.083.06.195 0 .238m.534.553c-.055.061-.166.045-.257-.037-.091-.083-.113-.195-.058-.254.055-.06.166-.043.26.038s.113.194.055.253m.749.323c-.024.078-.137.112-.25.08-.112-.034-.187-.126-.165-.205.021-.08.136-.115.25-.08.114.037.187.124.165.205m.819.056c0 .08-.092.15-.211.151-.12.002-.217-.064-.217-.145s.092-.15.212-.151c.119-.002.217.063.217.145m.761-.126c.015.08-.068.164-.187.184-.12.02-.224-.028-.239-.107-.015-.08.071-.165.187-.186.116-.022.224.028.239.108"/></g><defs><clipPath id="a"><path fill="#fff" d="M0 0h20v20H0z"/></clipPath></defs></svg>
